X:141
T:Air (médiéval)
C:? ? ?
O:???
M:C
L:1/8
K:Bb
%%continueall 1
V:1
c2d2 |: e3d ce dc | d>c d/e/d/c/ d4 | c2c>{d/}=B ce dc | {e}=B4 {d}B2 cd |
e3d ce dc | d>c d/e/d/c/ d4 | c2 c>{d/}=B ce dB | {e}c4- c2cd :| c8 |]
V:2
c4 |: g2f2 eg fe | f>e f/g/f/e/ f4 | e2 e>{e/}d eg f{e}e | d4 {f}d2 ef |
g3f eg fe | f>e f/g/f/e/ f4 | e2 e>{e/}d eg f{d}d | c8 :| c8 |]
V:3
z4 |: C3D EF2G/_A/ | B4- B4 | G2- G{G}G _AG2F | {G}G6 _AG |
C3D EF2G/_A/ | B4- BF B/_A/G/F/ | {B}G2C2 G{A}F G2 | E4 {A}E2D2 :| E8 |]



%%header "$P0	 $IR 	$P1"
%%footer $D - Éditions Galouvielle - 2009 - À usage librement privé dans le cadre familial

